flaticon/dialogue/phone.svg

<svg xmlns="http://www.w3.org/2000/svg" width="32" height="32" viewBox="0 0 24 24">
    <path d="M 23.742188 18.203125 C 22.847656 16.515625 19.746094 14.683594 19.609375 14.601562 C 19.042969 14.277344 18.453125 14.175781 17.953125 14.316406 C 17.578125 14.417969 17.273438 14.65625 17.066406 15.003906 C 16.613281 15.546875 16.050781 16.179688 15.914062 16.277344 C 14.859375 16.992188 14.023438 16.90625 13.113281 16 L 8.003906 10.886719 C 7.09375 9.976562 7.007812 9.140625 7.722656 8.089844 C 7.820312 7.953125 8.457031 7.386719 9 6.933594 C 9.34375 6.726562 9.582031 6.421875 9.6875 6.046875 C 9.824219 5.546875 9.722656 4.957031 9.394531 4.386719 C 9.320312 4.253906 7.488281 1.152344 5.800781 0.257812 C 4.941406 -0.195312 3.90625 -0.0390625 3.21875 0.644531 L 2.089844 1.773438 C 0.304688 3.5625 -0.339844 5.585938 0.167969 7.789062 C 0.59375 9.628906 1.832031 11.585938 3.851562 13.605469 L 10.394531 20.148438 C 12.960938 22.710938 15.40625 24 17.648438 24 C 19.292969 24 20.832031 23.304688 22.226562 21.910156 L 23.355469 20.78125 C 24.039062 20.097656 24.195312 19.058594 23.742188 18.203125 Z M 22.726562 20.152344 L 21.597656 21.28125 C 18.675781 24.203125 15.117188 23.609375 11.027344 19.519531 L 4.484375 12.976562 C 2.582031 11.074219 1.421875 9.261719 1.035156 7.589844 C 0.59375 5.675781 1.144531 3.980469 2.71875 2.40625 L 3.847656 1.277344 C 4.101562 1.023438 4.433594 0.890625 4.769531 0.890625 C 4.976562 0.890625 5.1875 0.941406 5.382812 1.046875 C 6.847656 1.820312 8.609375 4.808594 8.625 4.832031 C 8.824219 5.183594 8.902344 5.546875 8.828125 5.808594 C 8.785156 5.96875 8.683594 6.089844 8.523438 6.179688 L 8.457031 6.226562 C 8.078125 6.542969 7.175781 7.308594 6.984375 7.589844 C 6.714844 7.992188 6.535156 8.386719 6.4375 8.773438 C 6.121094 8.144531 5.867188 7.414062 5.78125 6.601562 C 5.757812 6.359375 5.539062 6.1875 5.292969 6.207031 C 5.050781 6.230469 4.871094 6.449219 4.898438 6.695312 C 5.21875 9.789062 7.625 11.800781 7.726562 11.886719 C 7.738281 11.894531 7.75 11.898438 7.761719 11.90625 L 12.484375 16.628906 C 12.503906 16.648438 12.523438 16.664062 12.542969 16.683594 C 12.558594 16.707031 12.570312 16.734375 12.589844 16.753906 C 12.675781 16.835938 14.683594 18.785156 17.75 19.105469 C 17.765625 19.105469 17.78125 19.105469 17.796875 19.105469 C 18.023438 19.105469 18.214844 18.9375 18.238281 18.707031 C 18.265625 18.464844 18.085938 18.246094 17.84375 18.21875 C 16.902344 18.121094 16.070312 17.847656 15.375 17.527344 C 15.714844 17.425781 16.0625 17.253906 16.410156 17.015625 C 16.691406 16.828125 17.457031 15.921875 17.773438 15.542969 L 17.820312 15.476562 C 17.910156 15.316406 18.03125 15.21875 18.191406 15.171875 C 18.453125 15.101562 18.820312 15.175781 19.164062 15.375 C 19.195312 15.390625 22.179688 17.152344 22.957031 18.621094 C 23.226562 19.128906 23.132812 19.746094 22.726562 20.152344 Z M 22.726562 20.152344"/>
</svg>

<svg xmlns="http://www.w3.org/2000/svg" width="32" height="32" viewBox="0 0 24 24">
    <path d="M23.742 18.203c-.894-1.687-3.996-3.52-4.133-3.601-.566-.325-1.156-.426-1.656-.286-.375.102-.68.34-.887.688-.453.543-1.015 1.176-1.152 1.273-1.055.715-1.89.63-2.8-.277l-5.11-5.113c-.91-.91-.996-1.746-.281-2.797.097-.137.734-.703 1.277-1.156.344-.207.582-.512.688-.887.136-.5.035-1.09-.293-1.66C9.32 4.254 7.488 1.152 5.8.257a2.192 2.192 0 0 0-2.582.388l-1.13 1.128C.306 3.563-.34 5.586.169 7.79c.426 1.84 1.664 3.797 3.684 5.816l6.543 6.543C12.96 22.711 15.406 24 17.648 24c1.645 0 3.184-.695 4.579-2.09l1.128-1.129c.684-.683.84-1.722.387-2.578zm-1.015 1.95l-1.13 1.128c-2.921 2.922-6.48 2.328-10.57-1.761l-6.543-6.543C2.582 11.074 1.422 9.262 1.035 7.59c-.441-1.914.11-3.61 1.684-5.184l1.129-1.129a1.29 1.29 0 0 1 1.535-.23c1.465.773 3.226 3.762 3.242 3.785.2.352.277.715.203.977a.593.593 0 0 1-.305.37l-.066.048c-.379.316-1.281 1.082-1.473 1.363a3.81 3.81 0 0 0-.546 1.183 6.312 6.312 0 0 1-.657-2.171.447.447 0 0 0-.488-.395.441.441 0 0 0-.395.488c.32 3.094 2.727 5.106 2.829 5.192.011.008.023.011.035.02l4.722 4.722c.02.02.04.035.059.055.016.023.027.05.047.07.086.082 2.094 2.031 5.16 2.351h.047a.446.446 0 0 0 .047-.887 7.835 7.835 0 0 1-2.469-.69c.34-.102.688-.274 1.035-.512.281-.188 1.047-1.094 1.363-1.473l.047-.066c.09-.16.211-.258.371-.305.262-.07.63.004.973.203.031.016 3.016 1.777 3.793 3.246.27.508.176 1.125-.23 1.531zm0 0"/>
</svg>
